X:0184
T:Quick Step West Fencibles.
M:2/4
L:1/8
Q:1/4=84
P:ABA % Aird uses a da capo
I: :: || DC
Z:Jack Campin * www.campin.me.uk * 2009
K:D
P:A
d/f/a/f/ dA|Bgg2|fedc        |(e/d/c/B/) A2 |
d/f/a/f/ dA|Bgg2|fedc        | d2        d2:|
P:B
Add=c      |cBB2|Beed        | cA        A2 |
ecAe       |fdAf|e>f e/d/c/B/| A2        A2||

